X: 794
T: Gel Güzelim Çamlıca`ya
C: Faiz Kapancı
O: Turkey
F: http://compmusic.upf.edu/node/140
N: nihavent--sarki--aksak--gel_guzelim--faiz_kapanci
N: makam= nihavent
N: form= sarki
N: usul= aksak = 9/8
M: 9/8
L: 1/16
K: C _B _e  
Q: 1/4=222
%%MIDI tuningsystem comma53
G4 d^cd2 A4 =cBAG ^FA | G6 d2e2 ^f2g4z2  | \
w:  ARANAĞME  |   | 
d4 aga2 ^f4 agfe d^c | 
w:   | 
d6 A2B2 c2d2 e2=e2  | f8 z4 e2d2 c2 | \
w:   |   | 
g8z4d2 c2B2  | d2ed c2dc B2cB A2BA G^F | 
w:   |   | 
G6 D2E2 ^F2G6  | G4 d^cd2 A4 =cBAG ^FA | \
w:   |  ARANAĞME  | 
G6 d2e2 ^f2g4z2  | 
w:   | 
d4 aga2 ^f4 agfe d^c | d6 A2B2 c2d2 e2=e2  | \
w:   |   | 
f8 z4 e2d2 c2 | 
w:   | 
g8z4d2 c2B2  | d2ed c2dc B2cB A2BA G^F | \
w:   |   | 
G6 D2E2 ^F2G6  | 
w:   | 
G4 G2G2 d8-d2 | A4B2 A2G2 ^F2G4z2  | \
w:  Gel  gü ze lim   |  Çam lı *  ca *  ya   | 
G^FG2 AGA2 BAB2 c2B2 c2 | 
w:  bu  *  *  *  *  *  *  *  *  *  *  ge  | 
d6 fedc BAG4z2  | G4 G2G2 d8-d2 | A4B2 A2G2 ^F2G4z2  | 
w:  ce   SAZ  |  Gel  gü ze lim   |  Çam lı *  ca *  ya   | 
G^FG2 AGA2 BAB2 c2B2 c2 | d6 A2B2 c2d2 e2=e2  | \
w:  bu  *  *  *  *  *  *  *  *  *  *  ge  |  ce   SAZ  | 
f8 z4 e2d2 c2 | 
w:  Gün  doğ *  ma  | 
g8z4d2 c2B2  | g2g2 f2e2 d2c2 c2dc BA | \
w:  dan  a  ca nım   |  gö rü şe lim  giz *  *  *  *  li  | 
B6 f2g2 a2b6  | 
w:  ce   SAZ  | 
b8 z4 g2^f2 g2 | a8z4^f2 e2d2  | d2e2 c2d2 B2A2 dcBA G^F | 
w:  Gün  doğ *  ma  |  dan  a  ca nım   |  gö rü şe lim  giz *  *  *  *  *  li  | 
G6 d2e2 ^f2g6  | b4 b2a2 ag^fg a6 | d4B2 A2BA G^FG6  | 
w:  ce   SAZ  |  Bül bül *  le *  *  *  rin   |  ef ga *  nı *  *  *  nı   | 
g2g2 f2e2 d2c2 dcB2 c2 | d6 f2_1/4e2 _7/8g2f6  | \
w:  din le ye lim  yan *  *  *  *  ya  |  na   SAZ  | 
d2_1/4e2 f4 f2{_7/8g}fe f6 | 
w:  Bül *  bül le *  *  *  rin   | 
d4d2 _1/4B2dc B^AB6  | g2a2 g2a2 f2g2 f2e2 ed | \
w:  ef ga *  nı *  *  *  nı   |  din le ye lim  yan *  *  *  ya  | 
d6 A2B2 c2d2 e2=e2  | 
w:  na   SAZ  | 
.f12 e2d2 c2 | g8z4d2 c2B2  | g2g2 f2e2 d2c2 c2dc BA | \
w:  Kum ru  *  gi  |  bi  a  ca nım   |  se vi şe lim  can  *  *  *  *  ca  | 
B6 f2g2 a2b6  | 
w:  na   SAZ  | 
.b12 g2^f2 g2 | a8z4^f2 e2d2  | d2e2 c2d2 B2A2 dcBA G^F | 
w:  Kum ru  *  gi  |  bi  a  ca nım   |  se vi şe lim  can  *  *  *  *  *  ca  | 
G6 D2E2 ^F2G6  | |


